X:1
T:Times Shared
M:2/4
L:1/16
C:Gris Sanderson
Q:450
N:This polka was written in that quiet period that comes after a few memorable
N:sessions.
K:Bm
F2||B2dB FBdB|GBdB ^GBdB|_B_ded BABd|e_d_BA B2AB|
B2dB FBdB|GBdB Acef|dBFB _B_ded|1d2B2 B2A_B:|2d2B2 B2e=f||
|:f2bf dfbf|aece Acef|A_B=Bc defg|^gaec Ace=f|
f2bf dfbf|aece Acec|1B2dB_ B_ded|d2B2 B2e=f:|2dBFB _B_ded|d2B2B4||
